!!! OTL: Berkowitz111
!!! Chapter: 1
!!! Section: I
!!! Page: 27
!!! Mode: 
!!! Encoder: DJB
**kern
*staff1
*I"Piano
=1-
*clefC3
*k[b-]
*d:
*M6/8
8d/L
8A/
8d/J
8.f\L
16e\K
8d\J
=2
8g\L
8d\
8g\J
8.b-\L
16a\K
8g\J
=3
8a\L
8f\
8d\J
8.d\L
16c#\K
8d\J
=4
4e\
8A/
4a\
8r
=5
8g\L
8d\
8g\J
8.b-\L
16a\K
8g\J
=6
8f\L
8d\
8f\J
8.a\L
16g\K
8f\J
=7
!!linebreak:original
8e\L
8g\
8f\J
8e\L
8d\
8c#\J
=8
8d\
8r
8a\
4.d\
==
*-
